X: 25030
T: Maiden Magpie, The
R: reel
M: 4/4
K: Dmajor
|:DFAF dFAF|DFAF GFED|DFAF dFAF|defd BcdB|
DFAF dFAF|DFAF GFED|DFAF dFAF|defd B2 d2:|
|:f2 fd e2 ec|dcdB AF F2|f2 fd e2 ec|dcBA B2 d2|
fafd egec||dcdB AF F2|GFGA BABd|gfed B2 d2:|

